X: 20
T: Tiptree Camp
%R: reel
B: "Twenty Four Country Dances for the Year 1781", Thomas Skillern, ed. p.10 #2
F: http://www.vwml.org/browse/browse-collections-dance-tune-books/browse-skillerns1781#
Z: 2014 John Chambers <jc:trillian.mit.edu>
M: C|
L: 1/16
K: A
|:\
e2ed c3B AcBA B2E2 | AGAB cBcd e2dc c2B2 :: EFEe ecBA EFEd d4 |
cAdB ecBA BcdB AGFE | e2ed c3B AcBA BGFE | AcBd ceaf ecBc A2A,2 :|
%%begintext align
%%   First Cu. cast down 2 Cu. .| up
%% again :| 1st & 2d Cu. Chassee & pas
%% Rigadoon Chassee back again & turn
%% Partnes [sic] :|. Cross over one Cu &
%% Right and Left at top :|:
%%endtext

%%sep 1 1 500
%%sep 1 1 500
